svgs/save.svg

<?xml version="1.0" encoding="utf-8"?>
<!-- Generator: Adobe Illustrator 23.1.1, SVG Export Plug-In . SVG Version: 6.00 Build 0)  -->
<svg version="1.1" xmlns="http://www.w3.org/2000/svg" xmlns:xlink="http://www.w3.org/1999/xlink" x="0px" y="0px"
	 viewBox="0 0 16 16" style="enable-background:new 0 0 16 16;" xml:space="preserve">
<style type="text/css">
	.st0{display:none;}
	.st1{display:inline;}
	.st2{fill:#404040;}
	.st3{fill:#FFFFFF;}
	.st4{fill:none;}
	.st5{opacity:0.3;fill:none;}
	.st6{fill:#FF0000;}
	.st7{fill-rule:evenodd;clip-rule:evenodd;fill:#404040;}
	.st8{fill-rule:evenodd;clip-rule:evenodd;fill:#FFFFFF;}
	.st9{fill-rule:evenodd;clip-rule:evenodd;fill:#2867B2;}
	.st10{fill:#EE1376;}
	.st11{fill:#1DA1F2;}
	.st12{fill:#1877F2;}
	.st13{display:inline;fill:none;}
	.st14{display:inline;fill:#404040;}
	.st15{display:inline;opacity:0.3;fill:none;}
	.st16{display:inline;fill-rule:evenodd;clip-rule:evenodd;fill:#404040;}
	.st17{fill:none;stroke:#404040;stroke-width:2;stroke-linecap:round;}
</style>
<g id="Outter_Container" class="st0">
</g>
<g id="NEW" class="st0">
</g>
<g id="NEW_NO_Container">
	<g id="icon-save_2_">
		<path class="st2" d="M15.9227,3.6177c-0.0508-0.1227-0.1241-0.2335-0.2167-0.3258l-2.9985-2.9985
			c-0.0923-0.0925-0.2031-0.1658-0.3258-0.2166c-0.1221-0.0505-0.2518-0.077-0.3819-0.077h-1h-6h-4c-0.5522,0-1,0.4473-1,1v14
			c0,0.5527,0.4478,1,1,1h3h8h3c0.5522,0,1-0.4473,1-1v-11C15.9998,3.8696,15.9733,3.7399,15.9227,3.6177z M11.9998,8.9998h-8
			c-0.5522,0-1,0.4473-1,1v4h-1v-12h2v3c0,0.5527,0.4478,1,1,1h6c0.5522,0,1-0.4473,1-1V2.4138l2,2v9.5859h-1v-4
			C12.9998,9.447,12.5521,8.9998,11.9998,8.9998z M9.9998,3.9998h-2v-2h2V3.9998z M4.9998,13.9998v-3h6v3H4.9998z"/>
	</g>
</g>
</svg>

<svg id="NEW_NO_Container" data-name="NEW NO Container" xmlns="http://www.w3.org/2000/svg" viewBox="0 0 16 16"><defs><style>.cls-1{fill:#404040;}</style></defs><title>icon-save</title><g id="icon-save"><path class="cls-1" d="M15.9227,3.6177a.9969.9969,0,0,0-.2167-.3258L12.7075.2934A1.0131,1.0131,0,0,0,12,0H1A1,1,0,0,0,0,1V15a1,1,0,0,0,1,1H15a1,1,0,0,0,1-1V4A.9991.9991,0,0,0,15.9227,3.6177ZM12,9H4a1,1,0,0,0-1,1v4H2V2H4V5A1,1,0,0,0,5,6h6a1,1,0,0,0,1-1V2.4138l2,2V14H13V10A1,1,0,0,0,12,9ZM10,4H8V2h2ZM5,14V11h6v3Z" transform="translate(0.0002 0.0002)"/></g></svg>
